public/ui/gym.svg

<?xml version="1.0" encoding="iso-8859-1"?>
<svg fill="#2C2C2EFF" version="1.1" id="Capa_1" xmlns="http://www.w3.org/2000/svg"
	 viewBox="0 0 285 285" xml:space="preserve">
<g>
	<g>
		<path d="M142.5,0C63.921,0,0,63.934,0,142.5S63.921,285,142.5,285S285,221.066,285,142.5S221.079,0,142.5,0z M142.5,271.424
			c-71.092,0-128.924-57.841-128.924-128.924S71.408,13.576,142.5,13.576S271.424,71.417,271.424,142.5
			S213.592,271.424,142.5,271.424z"/>
		<rect x="103.492" y="128.924" width="78.017" height="27.152"/>
		<path d="M50.902,121.286v2.758c-1.021-0.624-2.14-1.051-3.405-1.051c-3.748,0-6.779,3.036-6.779,6.778v25.457
			c0,3.742,3.031,6.778,6.779,6.778c1.265,0,2.384-0.427,3.405-1.051v2.758c0,6.915,5.186,12.556,11.872,13.396V107.89
			C56.088,108.73,50.902,114.371,50.902,121.286z"/>
		<path d="M237.503,122.993c-1.265,0-2.384,0.427-3.404,1.051v-2.758c0-6.915-5.187-12.556-11.872-13.396v69.221
			c6.686-0.841,11.872-6.481,11.872-13.396v-2.758c1.021,0.624,2.14,1.051,3.404,1.051c3.748,0,6.779-3.036,6.779-6.778v-25.457
			C244.282,126.029,241.251,122.993,237.503,122.993z"/>
		<path d="M83.128,86.533c-7.487,0-13.566,6.079-13.566,13.575v84.783c0,7.496,6.08,13.575,13.566,13.575
			c7.496,0,13.576-6.079,13.576-13.575v-84.783C96.704,92.612,90.624,86.533,83.128,86.533z"/>
		<path d="M201.872,86.533c-7.496,0-13.576,6.079-13.576,13.575v84.783c0,7.496,6.08,13.575,13.576,13.575
			c7.487,0,13.566-6.079,13.566-13.575v-84.783C215.438,92.612,209.359,86.533,201.872,86.533z"/>
	</g>
</g>
</svg>

<svg width="285" height="285" viewBox="0 0 285 285" fill="none" xmlns="http://www.w3.org/2000/svg">
  <path
    d="M142.5 0C63.921 0 0 63.934 0 142.5C0 221.066 63.921 285 142.5 285C221.079 285 285 221.066 285 142.5C285 63.934 221.079 0 142.5 0ZM142.5 271.424C71.408 271.424 13.576 213.583 13.576 142.5C13.576 71.417 71.408 13.576 142.5 13.576C213.592 13.576 271.424 71.417 271.424 142.5C271.424 213.583 213.592 271.424 142.5 271.424Z"
    fill="#2C2C2E"/>
  <path d="M181.509 128.924H103.492V156.076H181.509V128.924Z" fill="#2C2C2E"/>
  <path
    d="M50.902 121.286V124.044C49.881 123.42 48.762 122.993 47.497 122.993C43.749 122.993 40.718 126.029 40.718 129.771V155.228C40.718 158.97 43.749 162.006 47.497 162.006C48.762 162.006 49.881 161.579 50.902 160.955V163.713C50.902 170.628 56.088 176.269 62.774 177.109V107.89C56.088 108.73 50.902 114.371 50.902 121.286Z"
    fill="#2C2C2E"/>
  <path
    d="M237.503 122.993C236.238 122.993 235.119 123.42 234.099 124.044V121.286C234.099 114.371 228.912 108.73 222.227 107.89V177.111C228.913 176.27 234.099 170.63 234.099 163.715V160.957C235.12 161.581 236.239 162.008 237.503 162.008C241.251 162.008 244.282 158.972 244.282 155.23V129.773C244.282 126.029 241.251 122.993 237.503 122.993Z"
    fill="#2C2C2E"/>
  <path
    d="M83.128 86.533C75.641 86.533 69.562 92.612 69.562 100.108V184.891C69.562 192.387 75.642 198.466 83.128 198.466C90.624 198.466 96.704 192.387 96.704 184.891V100.108C96.704 92.612 90.624 86.533 83.128 86.533Z"
    fill="#2C2C2E"/>
  <path
    d="M201.872 86.533C194.376 86.533 188.296 92.612 188.296 100.108V184.891C188.296 192.387 194.376 198.466 201.872 198.466C209.359 198.466 215.438 192.387 215.438 184.891V100.108C215.438 92.612 209.359 86.533 201.872 86.533Z"
    fill="#2C2C2E"/>
</svg>
